dist/flags/m/GB-SCT.svg

<svg width="20" height="15" viewBox="0 0 20 15" fill="none" xmlns="http://www.w3.org/2000/svg">
<mask id="mask0" mask-type="alpha" maskUnits="userSpaceOnUse" x="0" y="0" width="20" height="15">
<rect width="20" height="15" fill="white"/>
</mask>
<g mask="url(#mask0)">
<path fill-rule="evenodd" clip-rule="evenodd" d="M0 0H20V15H0V0Z" fill="#0067C3"/>
<path d="M-0.75 1L19.25 16L20.75 14L0.75 -1L-0.75 1Z" fill="white"/>
<path d="M20.75 1L0.75 16L-0.75 14L19.25 -1L20.75 1Z" fill="white"/>
</g>
</svg>

<svg width="20" height="15" fill="none" xmlns="http://www.w3.org/2000/svg">
  <mask id="a" maskUnits="userSpaceOnUse" x="0" y="0" width="20" height="15">
    <path fill="#fff" d="M0 0h20v15H0z"/>
  </mask>
  <g mask="url(#a)">
    <path fill-rule="evenodd" clip-rule="evenodd" d="M0 0h20v15H0V0z" fill="#0067C3"/>
    <path d="M-.75 1l20 15 1.5-2-20-15-1.5 2z" fill="#fff"/>
    <path d="M20.75 1l-20 15-1.5-2 20-15 1.5 2z" fill="#fff"/>
  </g>
</svg>
